X: 302
T:Friskey,The. JaW.301
M:6/8
Q:120
S:James Winder Ms, Lancashire, 1835-41
R:Jig
O:England
A:Wyresdale,Lancashire
H:1/8
Z:vmp.Chris Partington, Aug 2004
K:A
c>de e>dc|B>cd ~c2A|c>de e>dc|B>AG A3:|!
|:{d}c>Bc c>Bc|ded c2A|{d}cBc cBc|dBG A3:|!
|:a>ba g>ag|f>gf {g}f>ed|c>de f>ed|c>dB A3:|!
|:E>CE F>DF|Bcd cBA|E>CE F>DF|dBG A3:||B4|]
